X: 20593
U: Q=!diminuendo(!
U: q=!diminuendo)!
M: 2/4
L: 1/16
K: G
d3c (c_B)(AG) | F3A G2dd |
d3c c>_BA>G !f!| Hd4 ^c2=c2 |!p!\
=B3B B2({cBAB}cd) | d3E E2(cA) | G3B B>AG>F | A4 G2"^|"AB"^sym."|\
Q(c4 qB2)z2 | Qf4 qg2z2 |!f! G3B B>AG>F | QA4 qG2 |]


